X:1
T:Title
L:1/8
Q:1/4=150
M:6/8
K:C
V:1 treble nm="Church Organ, Staff"
V:1
 A B2 c B2 | A B2- B B2 | A/B/ c2- c/ z/ B2- | B A2- A A2 | G A2 B A2 | G A2- A A2 | %6
w: By~Italian~Melody * * *||||||
 A G2- G/ z/ A2- | A B2- B B2 | d d2 c B2 | A B2- B B2 | c B2- B/ z/ A2- | A G2- G G2 |] %12
w: ||||||

